assets/icons/regular/xlsx-icon-regular.svg

<svg width="32" height="32" viewBox="0 0 32 32" fill="none" xmlns="http://www.w3.org/2000/svg">
<path fill-rule="evenodd" clip-rule="evenodd" d="M8 2.79365V29.2064C8 30.7492 9.23122 32 10.75 32H29.25C30.7688 32 32 30.7492 32 29.2064V7.35127C32 6.60502 31.7061 5.88979 31.1838 5.36503L26.6478 0.807413C26.133 0.29013 25.4381 0 24.714 0H10.75C9.23122 0 8 1.25076 8 2.79365ZM9.75 29.2064V2.79365C9.75 2.2326 10.1977 1.77778 10.75 1.77778H24.375V7.87302C24.375 8.92499 25.2145 9.77778 26.25 9.77778H30.25V29.2064C30.25 29.7674 29.8023 30.2222 29.25 30.2222H10.75C10.1977 30.2222 9.75 29.7674 9.75 29.2064ZM30.25 8V7.35127C30.25 7.07991 30.1431 6.81982 29.9532 6.629L26.125 2.78254V7.87302C26.125 7.94315 26.181 8 26.25 8H30.25Z" fill="#9D9C9B"/>
<path fill-rule="evenodd" clip-rule="evenodd" d="M20.5 13.125C20.5 12.6418 20.8918 12.25 21.375 12.25H27.125C27.6082 12.25 28 12.6418 28 13.125C28 13.6082 27.6082 14 27.125 14H21.375C20.8918 14 20.5 13.6082 20.5 13.125Z" fill="#69C997"/>
<path fill-rule="evenodd" clip-rule="evenodd" d="M20.5 17.125C20.5 16.6418 20.8918 16.25 21.375 16.25H27.125C27.6082 16.25 28 16.6418 28 17.125C28 17.6082 27.6082 18 27.125 18H21.375C20.8918 18 20.5 17.6082 20.5 17.125Z" fill="#54AD7D"/>
<path fill-rule="evenodd" clip-rule="evenodd" d="M20.5 21.125C20.5 20.6418 20.8918 20.25 21.375 20.25H27.125C27.6082 20.25 28 20.6418 28 21.125C28 21.6082 27.6082 22 27.125 22H21.375C20.8918 22 20.5 21.6082 20.5 21.125Z" fill="#2B593D"/>
<path d="M0 9.25C0 8.42157 0.671573 7.75 1.5 7.75H16.5C17.3284 7.75 18 8.42157 18 9.25V24.25C18 25.0784 17.3284 25.75 16.5 25.75H1.5C0.671573 25.75 0 25.0784 0 24.25V9.25Z" fill="#3D8A58"/>
<path d="M5 21.7715L7.80957 16.542L5.25977 11.75H7.20117L8.84863 14.9697L10.4619 11.75H12.3828L9.83301 16.6172L12.6426 21.7715H10.6396L8.81445 18.3057L6.98926 21.7715H5Z" fill="white"/>
</svg>

<svg xmlns="http://www.w3.org/2000/svg" width="32" height="32" fill="none" viewBox="0 0 32 32"><path fill="#9D9C9B" fill-rule="evenodd" d="M8 2.794v26.412C8 30.75 9.231 32 10.75 32h18.5c1.519 0 2.75-1.25 2.75-2.794V7.351c0-.746-.294-1.461-.816-1.986L26.648.807A2.73 2.73 0 0 0 24.714 0H10.75C9.231 0 8 1.25 8 2.794m1.75 26.412V2.794c0-.561.448-1.016 1-1.016h13.625v6.095c0 1.052.84 1.905 1.875 1.905h4v19.428c0 .561-.448 1.016-1 1.016h-18.5c-.552 0-1-.455-1-1.016M30.25 8v-.649c0-.271-.107-.531-.297-.722l-3.828-3.846v5.09c0 .07.056.127.125.127z" clip-rule="evenodd"/><path fill="#69C997" fill-rule="evenodd" d="M20.5 13.125c0-.483.392-.875.875-.875h5.75a.875.875 0 0 1 0 1.75h-5.75a.875.875 0 0 1-.875-.875" clip-rule="evenodd"/><path fill="#54AD7D" fill-rule="evenodd" d="M20.5 17.125c0-.483.392-.875.875-.875h5.75a.875.875 0 0 1 0 1.75h-5.75a.875.875 0 0 1-.875-.875" clip-rule="evenodd"/><path fill="#2B593D" fill-rule="evenodd" d="M20.5 21.125c0-.483.392-.875.875-.875h5.75a.875.875 0 0 1 0 1.75h-5.75a.875.875 0 0 1-.875-.875" clip-rule="evenodd"/><path fill="#3D8A58" d="M0 9.25a1.5 1.5 0 0 1 1.5-1.5h15a1.5 1.5 0 0 1 1.5 1.5v15a1.5 1.5 0 0 1-1.5 1.5h-15a1.5 1.5 0 0 1-1.5-1.5z"/><path fill="#fff" d="m5 21.772 2.81-5.23-2.55-4.792H7.2l1.648 3.22 1.613-3.22h1.92l-2.549 4.867 2.81 5.154H10.64l-1.826-3.465L6.99 21.77z"/></svg>
